X:1000
T: My Love Between Two Roses
C: Mo Ghr\'asa idir Dh\'a R\'os
S: B.Breathnach:"Ceol Rince na hEireann" IV/197
Z: B.Black
L: 1/8
M: 4/4
R: reel
K: D
AD (3FED FAAc|(3Bcd eg fddB|AD (3FED FAAc|BGFG E2 D2 :|
d2 fd Adfd|efge fdBc|d2 fd Adfd|edcd B2 A2|
d2 fd Adfd|efge fdBg|fgeg fdec|dABG FAdB ||
